svg/api/copy.svg

<svg width="16" height="16" viewBox="0 0 16 16" fill="none" xmlns="http://www.w3.org/2000/svg">
<path d="M12.9647 2.08543V3.29539C13.0491 3.37734 13.1165 3.47522 13.1628 3.58335C13.2092 3.69149 13.2336 3.80773 13.2348 3.92538V13.7851C13.2348 13.9019 13.2117 14.0177 13.167 14.1257C13.1223 14.2336 13.0567 14.3317 12.974 14.4144C12.8914 14.497 12.7932 14.5626 12.6852 14.6073C12.5772 14.652 12.4615 14.675 12.3446 14.675H5.52301C5.41209 14.6766 5.30194 14.6562 5.19894 14.6151C5.09593 14.5739 5.00211 14.5127 4.92288 14.4351H3.6826C3.82322 14.8115 4.07402 15.1369 4.4023 15.3688C4.73058 15.6006 5.12112 15.7283 5.52301 15.735H12.3346C12.8566 15.7352 13.3579 15.5313 13.7317 15.167C14.1055 14.8027 14.322 14.3068 14.335 13.7851V3.92538C14.323 3.51518 14.1851 3.11861 13.9399 2.78946C13.6948 2.46031 13.3543 2.21452 12.9647 2.08543Z" fill="black"/>
<path d="M10.2741 13.9851C10.568 13.9849 10.8583 13.9201 11.1243 13.7951C11.5161 13.5986 11.8426 13.293 12.0645 12.9151C12.2943 12.5241 12.4152 12.0787 12.4146 11.6251V2.62542C12.4173 2.02281 12.2004 1.43985 11.8044 0.985465C11.6179 0.765093 11.3859 0.587702 11.1243 0.465481C10.8603 0.333732 10.5692 0.265259 10.2741 0.265487H5.52301C5.38927 0.259993 5.25799 0.302562 5.15293 0.385483C5.12072 0.417781 5.09372 0.45489 5.07291 0.49548L1.79217 4.20537C1.73557 4.26449 1.69436 4.3366 1.67214 4.41536C1.66263 4.47163 1.66263 4.52909 1.67214 4.58536V11.5851C1.66854 12.1879 1.88555 12.7712 2.28228 13.2251C2.47163 13.4451 2.70283 13.6252 2.96244 13.7551C3.22843 13.8801 3.51871 13.9449 3.81263 13.9451L10.2741 13.9851ZM2.88242 12.3651C2.74763 12.1311 2.67852 11.8651 2.68237 11.5951V5.10534H4.42277C4.6455 5.11131 4.867 5.07043 5.07291 4.98534C5.3667 4.83977 5.61044 4.61001 5.77307 4.32536C5.9565 4.02455 6.05019 3.67763 6.04313 3.32539V1.26546H10.2741C10.4134 1.26775 10.5502 1.30196 10.6742 1.36545C10.8838 1.46913 11.0578 1.63271 11.1743 1.83544C11.3105 2.06884 11.3797 2.33525 11.3743 2.60542V11.6051C11.3869 11.9688 11.266 12.3245 11.0343 12.6051C10.931 12.7182 10.8092 12.8129 10.6742 12.8851C10.5495 12.9455 10.4126 12.9763 10.2741 12.9751H3.78262C3.64422 12.9752 3.50754 12.9445 3.38253 12.8851C3.17077 12.7616 2.99759 12.5815 2.88242 12.3651Z" fill="black"/>
</svg>

<svg id="Layer_1" data-name="Layer 1" xmlns="http://www.w3.org/2000/svg" viewBox="0 0 16 16"><title>copy</title><path d="M13,2.1V3.31a.89.89,0,0,1,.27.63V13.8a.89.89,0,0,1-.89.89H5.56a.84.84,0,0,1-.6-.24H3.72a2,2,0,0,0,1.84,1.3h6.81a2,2,0,0,0,2-1.95V3.94A2,2,0,0,0,13,2.1Z"/><path d="M10.31,14a2,2,0,0,0,.85-.19,2.27,2.27,0,0,0,.94-.88,2.54,2.54,0,0,0,.35-1.29v-9A2.48,2.48,0,0,0,11.84,1a2,2,0,0,0-.68-.52,1.9,1.9,0,0,0-.85-.2H5.56A.56.56,0,0,0,5.19.4a.44.44,0,0,0-.08.11L1.83,4.22a.5.5,0,0,0-.12.21.51.51,0,0,0,0,.17v7a2.47,2.47,0,0,0,.61,1.64,2.19,2.19,0,0,0,.68.53,2,2,0,0,0,.85.19ZM2.92,12.38a1.5,1.5,0,0,1-.2-.77V5.12H4.46A1.59,1.59,0,0,0,5.11,5a1.65,1.65,0,0,0,.7-.66,1.85,1.85,0,0,0,.27-1V1.28h4.23a.91.91,0,0,1,.4.1,1.18,1.18,0,0,1,.5.47,1.47,1.47,0,0,1,.2.77v9a1.49,1.49,0,0,1-.34,1,1.35,1.35,0,0,1-.36.28.9.9,0,0,1-.4.09H3.82a.93.93,0,0,1-.4-.09A1.32,1.32,0,0,1,2.92,12.38Z"/></svg>
